X: 118
T: Song of the Strong Heart Society (c)
C: Teton Sioux band 1911-1914
N: Derived from sioux118.krn
O: South Dakota, U.S.A.
N: Teton Sioux Music by Frances Densmore, 1918
Z: transcribed to **kern format by Craig Sapp
L: 1/8
M: 2/4
Q: 1/4=58
K: B clef=bass
%%linebreak <none>
(3D C B, (3D C B, [I:setbarnb 1]||  
[M:3/4]B,2G,3D ||  
[M:2/4](3D C B, (3C B, B, ||  
[M:3/4]B,6 ||  
[M:2/4]B, B, B,3/ D/ ||  
[M:3/4](3D C B,B,2G,3/ B,/ ||  
[M:2/4]B,> G, B,3/ G,/ | 
D, D, (3D, C, B,, ||  
[M:3/4](3E, C, B,,B,,2G,,3/ B,,/ ||  
[M:2/4]B,,> B,, B,,3/ D,/ | 
(3D, C, B,, C, B,, ||  
[M:3/4]G,,2G,,3G,, | 
G,,6 |]  



